X: 23766
T: Little Diamond, The
R: polka
M: 2/4
K: Dmajor
A>B A2F2|D2E2 F2G2|A>B A2F2|G2F2 E2F2|
D>E F2G2|A2B2 c2d2|e>d c2e2|1 d2A2 G2E2:|2 d4 d2e2||
f2d2 g>e|f2d2 c2B2|A2d2 c2d2|f2d2 e2de|
f2d2 g>e|f2d2 c2B2|A2g2 e2c2|1 d4 d2e2:|2 d2ed c2B2||

